!! 00027] TT[TB
!! Eigene Aufnahme, Guangzhou, 5.5.87
!!!OTL: Bu guo
!!!ARE: Asia, China,ÿHunan
!! Ethnic Group: Han
!! MM, selbst aufgeschrieben vom Saenger, Quelle S. Bandprotokoll)
!!   , S. 14)
!!!SCT: C0968
!!!YEM: Copyright 1995, estate of Helmut Schaffrath.
**kern
*ICvox
*Ivox
*M2/4
*k[f#]
*G:
{8dd
16dd
16ee
8g
16f#
16g
=1
2a
=2
8g
16e
16d
8g
8a
=3
2dd}
=4
{8dd
4g
8a
=5
8gg
8ee
4dd
=6
8a
8dd
8dd
16b
16a
=7
8dd
8g
4r}
=8
{8dd
16dd
16ee
8g
16g
16a
=9
2dd
=10
8.cc
16dd
8gg
8ee
=11
2dd}
=12
{8g
16g
16e
8g
8a
=13
8gg
8ee
4dd
=14
8g
16g
16a
16dd
16ee
16b
16a
=15
2g}
=16
{8.cc
16dd
8gg
8cc
=17
8gg
8ee
4dd
=18
4gg
8cc
8a
=19
16gg
16ee
8dd
4r}
=20
{8a
4dd
16b
16a
=21
8g
8f#
4g
=22
16a
16b
16a
16g
16ff#
16g
16a
16b
=23
2g}
=24
{8a
4dd
16b
16a
=25
8g
8f#
4g
=26
16a
16b
16a
16g
16ff#
16g
16a
16b
=27
2g}
==
!!!AGN: Wuge, Huagu, Hunan huagu
!! Die Saengerin Liang Zhaoping studiert an der Guangzhouer
!!    Musikhochschule. Aufgenommen am 5.5.87
!!    Wenig Verzierungen. Vorspiel weggelassen. Das Lied wird wiederholt.
!!!ONB: ESAC (Essen Associative Code) Database: CHINA
!!!AMT: simple duple
!!!AIN: vox
!!!EED: Helmut Schaffrath
!!!EEV: 1.0
*-
